brandFactory_export/3.Masa/Pastilla _3Masa.svg

<?xml version="1.0" encoding="UTF-8"?>
<svg width="24px" height="24px" viewBox="0 0 24 24" version="1.1" xmlns="http://www.w3.org/2000/svg" xmlns:xlink="http://www.w3.org/1999/xlink">
    <title>3.Masa/Pastilla _3Masa</title>
    <g id="Symbols" stroke="none" stroke-width="1" fill="none" fill-rule="evenodd">
        <g id="3.Masa/Pastilla-_3Masa" fill="#5CB615" fill-rule="nonzero">
            <path d="M20.410084,10.8168067 L16.5546218,14.6722689 C16.5176471,14.6789916 16.4806723,14.6722689 16.4403361,14.6857143 C14.6621849,15.2537815 12.6890756,13.7647059 11.3411765,12.4168067 C9.34117647,10.4168067 8.62857143,8.6487395 9.16302521,7.00840336 C9.17310924,6.97478992 9.1697479,6.94117647 9.17647059,6.91092437 L12.1848739,3.90252101 C12.2857143,3.78823529 12.3966387,3.68067227 12.507563,3.57647059 L12.7159664,3.37478992 C13.9563025,2.13445378 15.2067227,1.49243697 16.4336134,1.47226891 L16.5008403,1.47226891 C17.7478992,1.47226891 19.0218487,2.11428571 20.2857143,3.37815126 C22.7932773,5.88235294 22.8302521,8.31932773 20.410084,10.8168067 Z M21.3243697,2.33613445 C19.7445378,0.756302521 18.0571429,-0.0302521008 16.4033613,0.00336134454 C14.7831933,0.0336134454 13.1932773,0.820168067 11.6739496,2.33613445 L11.4890756,2.51092437 C11.3411765,2.65210084 11.1966387,2.78991597 11.102521,2.90420168 L2.97142857,11.0386555 C2.82352941,11.1663866 2.68235294,11.3109244 2.53781513,11.4621849 L2.36302521,11.6436975 C0.843697479,13.1630252 0.0605042017,14.7529412 0.0302521008,16.3697479 C0.00336134454,18.0504202 0.786554622,19.7042017 2.3697479,21.2840336 C3.92941176,22.8436975 5.57310924,23.6235294 7.21008403,23.6235294 C8.7394958,23.6235294 10.2621849,22.9445378 11.7109244,21.589916 C11.7915966,21.5226891 11.8621849,21.4487395 11.9394958,21.3680672 L21.4554622,11.8487395 C24.4369748,8.77647059 24.389916,5.39831933 21.3243697,2.33613445 L21.3243697,2.33613445 Z" id="Pastilla-_3Masa"></path>
        </g>
    </g>
</svg>

<svg width="24" height="24" viewBox="0 0 24 24" xmlns="http://www.w3.org/2000/svg"><path d="M20.41 10.817l-3.855 3.855c-.037.007-.074 0-.115.014-1.778.568-3.75-.921-5.099-2.27-2-2-2.712-3.767-2.178-5.408.01-.033.007-.067.013-.097l3.009-3.008c.1-.115.212-.222.323-.327l.208-.201c1.24-1.24 2.49-1.883 3.718-1.903h.067c1.247 0 2.52.642 3.785 1.906 2.507 2.504 2.544 4.941.124 7.439zm.914-8.48C19.744.756 18.057-.03 16.404.002c-1.62.03-3.21.817-4.73 2.333l-.185.175c-.148.141-.292.279-.386.393L2.97 11.04c-.147.127-.289.272-.433.423l-.175.182C.843 13.163.061 14.753.03 16.37c-.027 1.68.757 3.334 2.34 4.914 1.56 1.56 3.203 2.34 4.84 2.34 1.53 0 3.052-.68 4.5-2.034.082-.067.152-.141.23-.222l9.515-9.52c2.982-3.072 2.935-6.45-.13-9.512z" fill="#5CB615" fill-rule="nonzero"/></svg>
